kiosk-igrinskij/images/0d44b3dd29c4740b7d663a5be15dee61.svg

<svg fill="none" height="18" viewBox="0 0 18 18" width="18" xmlns="http://www.w3.org/2000/svg"><g fill="#f1e9dd"><path d="m7.58414 0-1.25602 2.51202v3.8161h3.16407v-6.32812z"/><path d="m0 4.21875h2.10938v1.05469h-2.10938z"/><path d="m2.87265 7.32733-2.109238 1.05469-.471725-.94345 2.109233-1.05455z"/><path d="m5.27344 2.26332.07704-.15394h-2.18642v2.10937h2.10938z"/><path d="m10.5469 2.10938h7.4531v2.10937h-7.4531z"/><path d="m2.63672 12.6914h.52734v-3.19921h-3.16406v.52731c0 1.4563 1.18048 2.6719 2.63672 2.6719z"/><path d="m2.10938 18h14.83592v-1.0547h-1.3637l-1.1947-1.1948c-.2568-.2568-.4284-.5728-.5195-.9146h-9.39171c.25035.3747.22797.8788-.10244 1.2092l-.9002.9002h-1.36367z"/><path d="m4.21875 13.7812h9.64865c.1856-.6955.6093-1.0133.759-1.1969.2061-.2175.1234-.3539 3.3736-1.1052v-3.0416h-13.78125z"/></g></svg>

<svg width="18" height="18" viewBox="0 0 18 18" fill="none" xmlns="http://www.w3.org/2000/svg">
<path d="M7.58414 0L6.32812 2.51202V6.32812H9.49219V0H7.58414Z" fill="#F1E9DD"/>
<path d="M0 4.21875H2.10938V5.27344H0V4.21875Z" fill="#F1E9DD"/>
<path d="M2.87265 7.32733L0.763412 8.38202L0.291687 7.43857L2.40092 6.38402L2.87265 7.32733Z" fill="#F1E9DD"/>
<path d="M5.27344 2.26332L5.35048 2.10938H3.16406V4.21875H5.27344V2.26332Z" fill="#F1E9DD"/>
<path d="M10.5469 2.10938H18V4.21875H10.5469V2.10938Z" fill="#F1E9DD"/>
<path d="M2.63672 12.6914H3.16406V9.49219H0V10.0195C0 11.4758 1.18048 12.6914 2.63672 12.6914Z" fill="#F1E9DD"/>
<path d="M2.10938 18H16.9453V16.9453H15.5816L14.3869 15.7505C14.1301 15.4937 13.9585 15.1777 13.8674 14.8359H4.47569C4.72604 15.2106 4.70366 15.7147 4.37325 16.0451L3.47305 16.9453H2.10938V18Z" fill="#F1E9DD"/>
<path d="M4.21875 13.7812H13.8674C14.053 13.0857 14.4767 12.7679 14.6264 12.5843C14.8325 12.3668 14.7498 12.2304 18 11.4791V8.4375H4.21875V13.7812Z" fill="#F1E9DD"/>
</svg>
